icons/fill-new-people-tie-business.svg

<svg xmlns="http://www.w3.org/2000/svg" width="32px" height="32px" viewBox="0 0 32 32" version="1.1">
    <title>fill-new-people-tie-business</title>
    <g id="fill-new-people-tie-business" stroke-width="1" fill-rule="evenodd">
        <path d="M23,18 C25.7614237,18 28,20.2385763 28,23 L28,28 C28,28.5522847 27.5522847,29 27,29 L16,29 L18,26 L16.5,18 L23,18 Z M14,26 L16,29 L5,29 C4.48716416,29 4.06449284,28.6139598 4.00672773,28.1166211 L4,28 L4,23 C4,20.2385763 6.23857625,18 9,18 L15.5,18 L14,26 Z M16,16 C19.8659932,16 23,12.8659932 23,9 C23,5.13400675 19.8659932,2 16,2 C12.1340068,2 9,5.13400675 9,9 C9,12.8659932 12.1340068,16 16,16 Z" id="&#24418;&#29366;" />
    </g>
</svg>

<svg xmlns="http://www.w3.org/2000/svg" viewBox="0 0 32 32"><path fill="currentColor" d="M23 18a5 5 0 0 1 5 5v5a1 1 0 0 1-1 1H16l2-3-1.5-8zm-9 8 2 3H5a1 1 0 0 1-.993-.883L4 28v-5a5 5 0 0 1 5-5h6.5zm2-10a7 7 0 1 0 0-14 7 7 0 0 0 0 14"/></svg>
